packages/icons/raw/imported/ChartFin.svg

<svg width="32" height="32" viewBox="0 0 32 32" fill="none" xmlns="http://www.w3.org/2000/svg">
<path d="M10.909 6.50005V13.8077M21.091 25.4999L21.091 18.1922M21.091 8.69231L21.091 6.5M10.909 25.4999L10.909 23.3076M10 22.577H11.8182C12.9227 22.577 13.8182 21.6816 13.8182 20.577V15.8078C13.8182 14.7032 12.9227 13.8078 11.8182 13.8078H10C8.89543 13.8078 8 14.7032 8 15.8078V20.577C8 21.6816 8.89543 22.577 10 22.577ZM22 9.42308H20.1818C19.0772 9.42308 18.1818 10.3185 18.1818 11.4231V16.1923C18.1818 17.2969 19.0772 18.1923 20.1818 18.1923H22C23.1045 18.1923 24 17.2969 24 16.1923L24 11.4231C24 10.3185 23.1045 9.42308 22 9.42308Z" stroke="black" stroke-linecap="round" stroke-linejoin="round"/>
</svg>

<svg width="32" height="32" fill="none" xmlns="http://www.w3.org/2000/svg"><path d="M10.909 6.5v7.308M21.091 25.5v-7.308m0-9.5V6.5m-10.182 19v-2.192M10 22.577h1.818a2 2 0 0 0 2-2v-4.77a2 2 0 0 0-2-2H10a2 2 0 0 0-2 2v4.77a2 2 0 0 0 2 2ZM22 9.423h-1.818a2 2 0 0 0-2 2v4.77a2 2 0 0 0 2 2H22a2 2 0 0 0 2-2v-4.77a2 2 0 0 0-2-2Z" stroke="#000" stroke-linecap="round" stroke-linejoin="round"/></svg>
